X:1
T:The Morning Star
T:The Morning Star
T:William James Kirkpatrick
T:Lucia B. Cook, 1921
T:Public Domain Courtesy of the Cyber Hymnal™
C:William James Kirkpatrick
Z:Public Domain
Z:Courtesy of the Cyber Hymnal™
%%score ( 1 2 ) ( 3 4 )
L:1/8
Q:1/4=110
M:4/4
K:Db
V:1 treble 
V:2 treble 
V:3 bass 
V:4 bass 
V:1
 [FA]2 | [Fd]3 [Fd] [Ac]2 [GB]2 | [FA]2 [DF]2 [FA]2 [DF]2 | [CE]3 [DF] [CG]2 [CA]2 | %4
w: 1.~In|ev- ery cloud of|pain and loss There|is a sil- ver|
w: 2.~We|need the tri- als|we must bear Like|gold that needs re-|
w: 3.~Temp-|ta- tions greet us|day by day, To|sin our hearts in-|
w: 4.~In|yon- der ci- ty,|glad and free, I’ll|cease my sad re-|
 [EG]2 [DF]4 [FA]2 | [Ed]3 [Ed] [Ec]2 [EB]2 | [Ee]3 [Ee] [Ec]2 [GB]2 | [FA]2 (=GA) [Ec]2 [EB]2 | %8
w: lin- ing; Be-|yond the sha- dow|of the cross The|Morn- ing * Star is|
w: fin- ing; But,|oh, there is no|sor- row where The|Morn- ing * Star is|
w: clin- ing; But|still and bright up-|on our way The|Morn- ing * Star is|
w: pin- ing; How|sweet to hope it|is for me The|Morn- ing * Star is|
 B4 !fermata![EA]3 ||[M:6/8]"^Refrain" [FA] | ([Fd][Ac])[GB] [FA]2 [FA] | (dc)[_EB] [FA]2 [FA] | %12
w: shin- ing.||||
w: shin- ing!|Up-|on * my way from|day * to day, With|
w: shin- ing.||||
w: shin- ing!||||
 [GB]2 [GB] (Bc)[Gd] | [Fd]3 !fermata![Ec]2 [GA] | ([FA][=E=G])[FA] !fermata![Af]2 [_G=e] | %15
w: |||
w: hope my path * a-|dorn- ing, I|see * a- far the|
w: |||
w: |||
 (dc)[Fd] !fermata![Ge]2 [=EB] | ([FA][=E=G])[FA] [Fd]2 [FA] | !fermata![Ge]3 !fermata![Fd] |] %18
w: |||
w: Morn- * ing Star, The|match- * less Star of|Morn- ing.|
w: |||
w: |||
V:2
 x2 | x8 | x8 | x8 | x8 | x8 | x8 | x2 F2 x4 | (=G3 E) x3 ||[M:6/8] x | x6 | =E2 x4 | x3 G2 x | %13
 x6 | x6 | F2 x4 | x6 | x4 |] %18
V:3
 [D,A,]2 | [D,A,]3 [D,A,] [D,A,]2 [D,D]2 | [D,D]2 [D,A,]2 [D,D]2 [D,A,]2 | %3
 [G,A,]3 [F,A,] [E,A,]2 [A,,A,]2 | [D,A,]2 [D,A,]4 [D,A,]2 | [B,,=G,]3 [B,,G,] [E,G,]2 [D,G,]2 | %6
 [C,A,]3 [C,A,] [A,,A,]2 [A,,C]2 | [D,D]2 [D,D]2 [E,A,]2 [E,=G,]2 | [E,D]4 !fermata![A,,C]3 || %9
[M:6/8] [D,A,] | [D,A,]2 [D,A,] [D,D]2 [D,D] | [D,=G,]2 [D,G,] [D,A,]2 [D,D] | %12
 [G,D]2 [G,D] (DC)[G,B,] | (A,2 C) A,2 [A,C] | [D,D]2 [D,D] D2 [A,C] | %15
 [B,D]2 [B,D] !fermata![G,B,]2 [=G,D] | [A,D]2 [A,D] [A,D]2 [A,D] | %17
 !fermata![A,C]3 !fermata![D,A,D] |] %18
V:4
 x2 | x8 | x8 | x8 | x8 | x8 | x8 | x8 | x7 ||[M:6/8] x | x6 | x6 | x3 G,2 x | A,3 A,2 x | %14
 x3 D2 x | x6 | x6 | x4 |] %18

